public/assets/logos/software/javascript.svg

<svg fill="none" height="10" viewBox="0 0 10 10" width="10" xmlns="http://www.w3.org/2000/svg" xmlns:xlink="http://www.w3.org/1999/xlink"><clipPath id="a"><path d="m.633999 0h8.732v10h-8.732z"/></clipPath><g clip-path="url(#a)"><path d="m1.36516 8.95263-.731169-8.9357919 8.731999.0179569-.77313 8.917835-3.55991 1.0308z" fill="#e9ca32"/><path d="m5.03294 9.12031v-8.252581l3.59589.011971-.64123 7.38354z" fill="#ffde25"/><path d="m4.64786 1.84761h-.95066v5.49271l-.73941-.14084v-.7394l-.88024-.14084v1.65485l2.57031.66899zm.71314 0h2.63178l-.17605 1.05277h-1.45106v1.7276h1.45106l-.17605 3.48695-2.27968.52815v-1.0915l1.54028-.52815.08894-1.44359-1.62922.2359z" fill="#fff"/></g></svg>

<svg width="10" height="10" viewBox="0 0 10 10" fill="none" xmlns="http://www.w3.org/2000/svg">
<g clip-path="url(#clip0_9_44)">
<path d="M1.36516 8.95263L0.633991 0.0168381L9.36599 0.034795L8.59286 8.95263L5.03295 9.98343L1.36516 8.95263Z" fill="#E9CA32"/>
<path d="M5.03294 9.12031V0.867729L8.62883 0.8797L7.9876 8.26324L5.03294 9.12031Z" fill="#FFDE25"/>
<path d="M4.64786 1.84761H3.6972V7.34032L2.95779 7.19948V6.46008L2.07755 6.31924V7.97409L4.64786 8.64308V1.84761ZM5.361 1.84761H7.99278L7.81673 2.90038H6.36567V4.62798H7.81673L7.64068 8.11493L5.361 8.64308V7.55158L6.90128 7.02343L6.99022 5.57984L5.361 5.81574V1.84761Z" fill="white"/>
</g>
<defs>
<clipPath id="clip0_9_44">
<rect width="8.732" height="10" fill="white" transform="translate(0.633999)"/>
</clipPath>
</defs>
</svg>
